source/images/separator.svg

<svg width="78" height="8" viewBox="0 0 78 8" fill="none" xmlns="http://www.w3.org/2000/svg">
<path fill-rule="evenodd" clip-rule="evenodd" d="M77.411 7.58786C77.7746 7.29301 78 6.90426 78 6.57207C78 5.83283 77.2084 5.06105 76.4448 5.05587C75.4888 5.04959 74.128 4.46711 71.0536 2.74868C64.6244 -0.844573 63.1189 -0.855849 56.7027 2.64201C52.691 4.82887 51.8592 5.13961 50.6961 4.88562C50.2186 4.78136 48.3937 3.9153 46.6411 2.96089C42.9129 0.930788 41.4651 0.30431 39.9723 0.0745328C37.9058 -0.243236 35.8797 0.417259 31.6476 2.78786C30.2866 3.55021 28.6192 4.37966 27.9425 4.63107C26.3052 5.23888 25.8614 5.11521 21.8135 2.92244C20.0584 1.97172 17.9287 0.93245 17.081 0.612832C13.985 -0.554169 12.0272 -0.117164 6.45165 2.98547C4.56455 4.03565 3.08364 4.72146 2.39025 4.8662C0.775772 5.20357 0.278412 5.44444 0.107003 5.97184C-0.132103 6.70812 0.0183412 7.14771 0.671379 7.62335C1.18766 7.99916 1.42928 8.04574 2.38615 7.95387C3.96371 7.80229 5.47903 7.18838 8.96624 5.2886C14.4372 2.30797 14.0157 2.30464 19.592 5.37271C23.5319 7.54053 24.5856 7.92245 26.6002 7.91284C28.6274 7.90322 29.7445 7.49839 33.5643 5.39009C39.1347 2.31518 38.8078 2.32091 44.0374 5.20875C47.9216 7.35364 49.4374 7.91745 51.3313 7.92189C53.2367 7.92614 54.6857 7.38211 59.109 5.00116C60.9115 4.03103 62.6689 3.18068 63.0147 3.11155C64.2039 2.87363 65.2182 3.22561 68.4695 5.00375C72.2015 7.04512 74.0391 7.79823 75.6707 7.9548C76.7001 8.0537 76.8845 8.01487 77.411 7.58786Z" fill="#BEC7E7"/>
</svg>

<svg viewBox="0 0 78 8" fill="none" xmlns="http://www.w3.org/2000/svg"><path fill-rule="evenodd" clip-rule="evenodd" d="M77.41 7.59c.36-.3.59-.69.59-1.02 0-.74-.8-1.5-1.56-1.51-.95-.01-2.31-.6-5.39-2.31-6.43-3.6-7.93-3.6-14.35-.1-4 2.18-4.84 2.49-6 2.24-.48-.1-2.3-.97-4.06-1.93-3.73-2.03-5.17-2.66-6.67-2.89-2.06-.31-4.09.35-8.32 2.72a37.23 37.23 0 0 1-3.7 1.84c-1.64.6-2.09.49-6.14-1.7a53.35 53.35 0 0 0-4.73-2.32c-3.1-1.16-5.05-.73-10.63 2.38a19.68 19.68 0 0 1-4.06 1.88c-1.61.33-2.11.57-2.28 1.1-.24.74-.1 1.18.56 1.65.52.38.76.43 1.72.33 1.57-.15 3.09-.76 6.58-2.66 5.47-2.98 5.05-2.99 10.62.08 3.94 2.17 5 2.55 7.01 2.54 2.03 0 3.14-.41 6.96-2.52 5.57-3.07 5.25-3.07 10.48-.18 3.88 2.14 5.4 2.7 7.3 2.71 1.9 0 3.35-.54 7.77-2.92 1.8-.97 3.56-1.82 3.9-1.89 1.2-.24 2.2.12 5.46 1.9 3.73 2.04 5.57 2.79 7.2 2.94 1.03.1 1.21.06 1.74-.36Z" fill="#BEC7E7"/></svg>
